X:1
T:Home Boys Home
M:4/4
L:1/8
K:G
 DD| G2 GGG-A BG| AA DD D3 D| c2 cc B2 GB| dd d3/2 e/2 d3 d| e2 ee d2 dd|\
 AB dc B2 d2| cc AFD-F Ac| BG GG G2||
